22x22/actions/edit-bomb.svg

<svg xmlns="http://www.w3.org/2000/svg" viewBox="0 0 22 22">
  <defs id="defs3051">
    <style type="text/css" id="current-color-scheme">
      .ColorScheme-Text {
        color:#5d656b;
      }
      </style>
  </defs>
 <path 
    style="fill:currentColor;fill-opacity:1;stroke:none" 
	d="m19 3c-1.31923.271305-2.458458 1.064283-3.181641 2.177734-.25028-.112241-.525374-.177734-.818359-.177734-.20851 0-.405044.040936-.59375.099609-1.137438-.693714-2.471059-1.099609-3.90625-1.099609-4.155002 0-7.5 3.344998-7.5 7.5 0 4.155002 3.344998 7.5 7.5 7.5 4.155002 0 7.5-3.344998 7.5-7.5 0-1.435191-.405896-2.768812-1.099609-3.90625.058673-.188706.099609-.38524.099609-.59375 0-.448032-.149481-.856751-.396484-1.189453.535538-.871737 1.385746-1.518686 2.396484-1.78125v-1.029297m-12.681641 3.517578c-.947622 1.12892-1.517578 2.585672-1.517578 4.181641 0 3.601001 2.898999 6.5 6.5 6.5 1.595445 0 3.050922-.570515 4.179688-1.517578-1.190509 1.417748-2.975866 2.318359-4.980469 2.318359-3.601002 0-6.5-2.898998-6.5-6.5 0-2.00503.900084-3.791913 2.318359-4.982422"
    class="ColorScheme-Text"
    />  
</svg>

<svg xmlns="http://www.w3.org/2000/svg" viewBox="0 0 22 22"><path style="fill:currentColor;fill-opacity:1;stroke:none;color:#5d656b" d="M19 3a4.997 4.997 0 0 0-3.182 2.178A1.99 1.99 0 0 0 15 5c-.209 0-.405.04-.594.1A7.472 7.472 0 0 0 10.5 4 7.484 7.484 0 0 0 3 11.5c0 4.155 3.345 7.5 7.5 7.5 4.155 0 7.5-3.345 7.5-7.5a7.472 7.472 0 0 0-1.1-3.906c.06-.189.1-.385.1-.594 0-.448-.15-.857-.396-1.19A3.993 3.993 0 0 1 19 4.03V3M6.318 6.518a6.476 6.476 0 0 0-1.517 4.181c0 3.601 2.899 6.5 6.5 6.5 1.595 0 3.05-.57 4.18-1.517A6.48 6.48 0 0 1 10.5 18 6.486 6.486 0 0 1 4 11.5c0-2.005.9-3.792 2.318-4.982"/></svg>
